www/images/vector/logos/labs.svg

<?xml version="1.0" encoding="UTF-8" standalone="no"?>
<svg width="1024px" height="799px" viewBox="0 0 1024 799" version="1.1" xmlns="http://www.w3.org/2000/svg" xmlns:xlink="http://www.w3.org/1999/xlink" xmlns:sketch="http://www.bohemiancoding.com/sketch/ns">
    <!-- Generator: Sketch 3.2.2 (9983) - http://www.bohemiancoding.com/sketch -->
    <title>Imported Layers</title>
    <desc>Created with Sketch.</desc>
    <defs></defs>
    <g id="Page-1" stroke="none" stroke-width="1" fill="none" fill-rule="evenodd" sketch:type="MSPage">
        <g id="1024" sketch:type="MSArtboardGroup" transform="translate(0.000000, -113.000000)">
            <g id="Imported-Layers" sketch:type="MSLayerGroup" transform="translate(0.000000, 113.000000)">
                <path d="M512.495329,270 L334,399 L512.495329,528 L691,399 L512.495329,270" id="Fill-1" fill="#91A000" sketch:type="MSShapeGroup"></path>
                <path d="M168,21 C192.975202,40.1290626 209.111443,70.2531289 209.111443,104.15439 L209.111443,309.029829 L333.473558,399 L512,269.855454 L168,21" id="Fill-2" fill="#9DC538" sketch:type="MSShapeGroup"></path>
                <path d="M168,777 C192.975202,757.870464 209.111443,727.745653 209.111443,693.843553 L209.111443,488.963046 L333.473558,399 L512,528.138391 L168,777" id="Fill-3" fill="#FBD202" sketch:type="MSShapeGroup"></path>
                <path d="M167.928093,21.5355805 L162.803439,17.8277154 C146.150648,6.57303371 126.090755,0 104.490665,0 C46.7939705,0 0,46.928839 0,104.812734 C0,139.925094 17.2221974,170.964419 43.6389013,190 L43.6389013,190.08427 L209,310 L209,104.812734 C209,70.8614232 192.879276,40.6928839 167.928093,21.5355805" id="Fill-4" fill="#843F18" sketch:type="MSShapeGroup"></path>
                <path d="M209,694.174736 L209,489 L43.6315155,608.900625 L43.6315155,609.003625 C17.2323016,628.011689 0,659.080043 0,694.1841 C0,752.069744 46.7867256,799 104.495333,799 C126.087052,799 146.14784,792.426768 162.810711,781.171746 L167.926258,777.454405 C192.887891,758.296523 209,728.127073 209,694.174736" id="Fill-5" fill="#EB4918" sketch:type="MSShapeGroup"></path>
                <path d="M43.6389013,188.986234 C17.2221974,170.014258 0,139.020157 0,104 L0,693 C0,657.979843 17.2221974,627.013766 43.6389013,608.013766 L209,488.315634 L209,308.684366 L43.6389013,188.986234" id="Fill-6" fill="#F17522" sketch:type="MSShapeGroup"></path>
                <path d="M856,21 C831.034142,40.1290626 814.8979,70.2531289 814.8979,104.15439 L814.8979,309.029829 L690.526442,399 L512,269.855454 L856,21" id="Fill-7" fill="#FBD202" sketch:type="MSShapeGroup"></path>
                <path d="M856,777 C831.034142,757.870464 814.8979,727.745653 814.8979,693.843553 L814.8979,488.963046 L690.526442,399 L512,528.14774 L856,777" id="Fill-8" fill="#9DC538" sketch:type="MSShapeGroup"></path>
                <path d="M815,104.825264 L815,310 L980.35915,190.099375 L980.35915,189.996375 C1006.7677,170.988311 1024,139.919957 1024,104.8159 C1024,46.9302564 977.213274,0 919.495333,0 C897.903613,0 877.842825,6.57323225 861.179954,17.8282538 L856.064407,21.5455946 C831.112109,40.7034766 815,70.8729272 815,104.825264" id="Fill-9" fill="#00A013" sketch:type="MSShapeGroup"></path>
                <path d="M856.062573,777.463769 L861.187226,781.171746 C877.840018,792.426768 897.899911,799 919.5,799 C977.206029,799 1024,752.069744 1024,694.1841 C1024,659.07068 1006.76847,628.030417 980.351764,609.003625 L980.351764,608.909989 L815,489 L815,694.1841 C815,728.136436 831.120724,758.305887 856.062573,777.463769" id="Fill-10" fill="#01722F" sketch:type="MSShapeGroup"></path>
                <path d="M980.351764,188.986234 C1006.76847,170.014258 1024,139.020157 1024,104 L1024,693 C1024,657.979843 1006.76847,627.013766 980.351764,608.013766 L815,488.315634 L815,308.684366 L980.351764,188.986234" id="Fill-11" fill="#37A0DE" sketch:type="MSShapeGroup"></path>
            </g>
        </g>
    </g>
</svg>

<svg width="1024" height="799" viewBox="0 0 1024 799" xmlns="http://www.w3.org/2000/svg"><title>Imported Layers</title><desc>Created with Sketch.</desc><g fill="none" fill-rule="evenodd"><g><g><path d="M512.495 270L334 399l178.495 129L691 399 512.495 270" fill="#91A000"/><path d="M168 21c24.975 19.13 41.11 49.253 41.11 83.154V309.03L333.475 399 512 269.855 168 21" fill="#9DC538"/><path d="M168 777c24.975-19.13 41.11-49.254 41.11-83.156v-204.88L333.475 399 512 528.138 168 777" fill="#FBD202"/><path d="M167.928 21.536l-5.125-3.708C146.15 6.573 126.09 0 104.49 0 46.795 0 0 46.93 0 104.813c0 35.112 17.222 66.15 43.64 85.187v.084L209 310V104.813c0-33.952-16.12-64.12-41.072-83.277" fill="#843F18"/><path d="M209 694.175V489L43.632 608.9v.104C17.232 628.012 0 659.08 0 694.184 0 752.07 46.787 799 104.495 799c21.592 0 41.653-6.573 58.316-17.828l5.116-3.718C192.888 758.297 209 728.127 209 694.174" fill="#EB4918"/><path d="M43.64 188.986C17.22 170.014 0 139.02 0 104v589c0-35.02 17.222-65.986 43.64-84.986L209 488.316V308.684L43.64 188.986" fill="#F17522"/><path d="M856 21c-24.966 19.13-41.102 49.253-41.102 83.154V309.03L690.526 399 512 269.855 856 21" fill="#FBD202"/><path d="M856 777c-24.966-19.13-41.102-49.254-41.102-83.156v-204.88L690.526 399 512 528.148 856 777" fill="#9DC538"/><path d="M815 104.825V310l165.36-119.9v-.104c26.408-19.008 43.64-50.076 43.64-85.18C1024 46.93 977.213 0 919.495 0c-21.59 0-41.652 6.573-58.315 17.828l-5.116 3.718C831.112 40.703 815 70.873 815 104.826" fill="#00A013"/><path d="M856.063 777.464l5.124 3.708C877.84 792.427 897.9 799 919.5 799c57.706 0 104.5-46.93 104.5-104.816 0-35.113-17.232-66.154-43.648-85.18v-.094L815 489v205.184c0 33.952 16.12 64.122 41.063 83.28" fill="#01722F"/><path d="M980.352 188.986C1006.768 170.014 1024 139.02 1024 104v589c0-35.02-17.232-65.986-43.648-84.986L815 488.316V308.684l165.352-119.698" fill="#37A0DE"/></g></g></g></svg>
